packages/icons/src/person-plus.svg

<svg xmlns="http://www.w3.org/2000/svg" width="24" height="24" fill="none" viewBox="0 0 24 24">
  <path fill="#000" d="M20 9V6h-2v3h-3v2h3v3h2v-3h3V9h-3ZM9 12c2.21 0 4-1.79 4-4s-1.79-4-4-4-4 1.79-4 4 1.79 4 4 4Zm0-6c1.1 0 2 .9 2 2s-.9 2-2 2-2-.9-2-2 .9-2 2-2Zm6.39 8.56C13.71 13.7 11.53 13 9 13s-4.71.7-6.39 1.56A2.97 2.97 0 0 0 1 17.22V20h16v-2.78c0-1.12-.61-2.15-1.61-2.66ZM15 18H3v-.78c0-.38.2-.72.52-.88C4.71 15.73 6.63 15 9 15c2.37 0 4.29.73 5.48 1.34.32.16.52.5.52.88V18Z"/>
</svg>

<svg width="24" height="24" viewBox="0 0 24 24" fill="none" xmlns="http://www.w3.org/2000/svg">
<path d="M20 9V6H18V9H15V11H18V14H20V11H23V9H20ZM9 12C11.21 12 13 10.21 13 8C13 5.79 11.21 4 9 4C6.79 4 5 5.79 5 8C5 10.21 6.79 12 9 12ZM9 6C10.1 6 11 6.9 11 8C11 9.1 10.1 10 9 10C7.9 10 7 9.1 7 8C7 6.9 7.9 6 9 6ZM15.39 14.56C13.71 13.7 11.53 13 9 13C6.47 13 4.29 13.7 2.61 14.56C1.61 15.07 1 16.1 1 17.22V20H17V17.22C17 16.1 16.39 15.07 15.39 14.56ZM15 18H3V17.22C3 16.84 3.2 16.5 3.52 16.34C4.71 15.73 6.63 15 9 15C11.37 15 13.29 15.73 14.48 16.34C14.8 16.5 15 16.84 15 17.22V18Z" fill="black"/>
</svg>
